common/src/main/resources/icons/plugins/selenium/selenium.svg

<!--
  - The MIT License (MIT)
  -
  - Copyright (c) 2015-2024 Elior "Mallowigi" Boukhobza
  -
  - Permission is hereby granted, free of charge, to any person obtaining a copy
  - of this software and associated documentation files (the "Software"), to deal
  - in the Software without restriction, including without limitation the rights
  - to use, copy, modify, merge, publish, distribute, sublicense, and/or sell
  - copies of the Software, and to permit persons to whom the Software is
  - furnished to do so, subject to the following conditions:
  -
  - The above copyright notice and this permission notice shall be included in all
  - copies or substantial portions of the Software.
  -
  - THE SOFTWARE IS PROVIDED "AS IS", WITHOUT WARRANTY OF ANY KIND, EXPRESS OR
  - IMPLIED, INCLUDING BUT NOT LIMITED TO THE WARRANTIES OF MERCHANTABILITY,
  - FITNESS FOR A PARTICULAR PURPOSE AND NONINFRINGEMENT. IN NO EVENT SHALL THE
  - AUTHORS OR COPYRIGHT HOLDERS BE LIABLE FOR ANY CLAIM, DAMAGES OR OTHER
  - LIABILITY, WHETHER IN AN ACTION OF CONTRACT, TORT OR OTHERWISE, ARISING FROM,
  - OUT OF OR IN CONNECTION WITH THE SOFTWARE OR THE USE OR OTHER DEALINGS IN THE
  - SOFTWARE.
  -->

<svg data-big="true" width="16px" height="16px" viewBox="0 0 16 16" fill="none" xmlns="http://www.w3.org/2000/svg">
  <defs>
    <mask id="Mask">
      <rect x="2" y="2" width="12" height="12" fill="black"/>

      <path
        d="M9.59598 13.006C10.38 13.006 10.884 12.694 11.3 12.23L10.916 11.886C10.58 12.238 10.18 12.47 9.61198 12.47C8.87598 12.47 8.24398 11.966 8.15598 11.07H11.436C11.444 10.998 11.444 10.95 11.444 10.87C11.444 9.662 10.74 8.686 9.51598 8.686C8.37198 8.686 7.53198 9.646 7.53198 10.838V10.854C7.53198 12.134 8.45998 13.006 9.59598 13.006ZM8.15598 10.614C8.23598 9.806 8.77998 9.206 9.49998 9.206C10.324 9.206 10.756 9.862 10.82 10.614H8.15598Z"
        fill="white"/>
      <path
        d="M5.06198 12.99C6.17398 12.99 6.97398 12.366 6.97398 11.406V11.39C6.97398 10.534 6.39798 10.078 5.14998 9.806C3.91798 9.542 3.62998 9.246 3.62998 8.718V8.702C3.62998 8.198 4.09398 7.798 4.82198 7.798C5.39798 7.798 5.91798 7.982 6.43798 8.406L6.80598 7.918C6.23798 7.462 5.65398 7.23 4.83798 7.23C3.77398 7.23 2.99798 7.878 2.99798 8.758V8.774C2.99798 9.694 3.58998 10.11 4.87798 10.39C6.05398 10.638 6.33398 10.934 6.33398 11.454V11.47C6.33398 12.022 5.83798 12.422 5.08598 12.422C4.30998 12.422 3.74998 12.158 3.16598 11.63L2.77398 12.094C3.44598 12.694 4.17398 12.99 5.06198 12.99Z"
        fill="white"/>
      <path d="M6.65002 4.35L7.36 3.64L9.50002 5.8L13.3 2H14L14 2.7L9.5 7.2L6.65002 4.35Z" fill="white"/>
    </mask>
  </defs>

  <g mask="url(#Mask)">
    <rect x="2" y="2" width="12" height="12" fill="#00B400"/>
    <path
      d="M9.59598 13.006C10.38 13.006 10.884 12.694 11.3 12.23L10.916 11.886C10.58 12.238 10.18 12.47 9.61198 12.47C8.87598 12.47 8.24398 11.966 8.15598 11.07H11.436C11.444 10.998 11.444 10.95 11.444 10.87C11.444 9.662 10.74 8.686 9.51598 8.686C8.37198 8.686 7.53198 9.646 7.53198 10.838V10.854C7.53198 12.134 8.45998 13.006 9.59598 13.006ZM8.15598 10.614C8.23598 9.806 8.77998 9.206 9.49998 9.206C10.324 9.206 10.756 9.862 10.82 10.614H8.15598Z"
      fill="00B400"/>
    <path
      d="M5.06198 12.99C6.17398 12.99 6.97398 12.366 6.97398 11.406V11.39C6.97398 10.534 6.39798 10.078 5.14998 9.806C3.91798 9.542 3.62998 9.246 3.62998 8.718V8.702C3.62998 8.198 4.09398 7.798 4.82198 7.798C5.39798 7.798 5.91798 7.982 6.43798 8.406L6.80598 7.918C6.23798 7.462 5.65398 7.23 4.83798 7.23C3.77398 7.23 2.99798 7.878 2.99798 8.758V8.774C2.99798 9.694 3.58998 10.11 4.87798 10.39C6.05398 10.638 6.33398 10.934 6.33398 11.454V11.47C6.33398 12.022 5.83798 12.422 5.08598 12.422C4.30998 12.422 3.74998 12.158 3.16598 11.63L2.77398 12.094C3.44598 12.694 4.17398 12.99 5.06198 12.99Z"
      fill="00B400"/>
    <path d="M6.65002 4.35L7.36 3.64L9.50002 5.8L13.3 2H14L14 2.7L9.5 7.2L6.65002 4.35Z" fill="00B400"/>
  </g>
</svg>

<svg xmlns="http://www.w3.org/2000/svg" width="16" height="16" fill="none" data-big="true"><defs><mask id="a"><path fill="#000" d="M2 2h12v12H2z"/><path fill="#fff" d="M9.596 13.006c.784 0 1.288-.312 1.704-.776l-.384-.344c-.336.352-.736.584-1.304.584-.736 0-1.368-.504-1.456-1.4h3.28c.008-.072.008-.12.008-.2 0-1.208-.704-2.184-1.928-2.184-1.144 0-1.984.96-1.984 2.152v.016c0 1.28.928 2.152 2.064 2.152m-1.44-2.392c.08-.808.624-1.408 1.344-1.408.824 0 1.256.656 1.32 1.408zM5.062 12.99c1.112 0 1.912-.624 1.912-1.584v-.016c0-.856-.576-1.312-1.824-1.584-1.232-.264-1.52-.56-1.52-1.088v-.016c0-.504.464-.904 1.192-.904.576 0 1.096.184 1.616.608l.368-.488c-.568-.456-1.152-.688-1.968-.688-1.064 0-1.84.648-1.84 1.528v.016c0 .92.592 1.336 1.88 1.616 1.176.248 1.456.544 1.456 1.064v.016c0 .552-.496.952-1.248.952-.776 0-1.336-.264-1.92-.792l-.392.464c.672.6 1.4.896 2.288.896M6.65 4.35l.71-.71L9.5 5.8 13.3 2h.7v.7L9.5 7.2z"/></mask></defs><g mask="url(#a)"><path fill="#00B400" d="M2 2h12v12H2z"/><path fill="00B400" d="M9.596 13.006c.784 0 1.288-.312 1.704-.776l-.384-.344c-.336.352-.736.584-1.304.584-.736 0-1.368-.504-1.456-1.4h3.28c.008-.072.008-.12.008-.2 0-1.208-.704-2.184-1.928-2.184-1.144 0-1.984.96-1.984 2.152v.016c0 1.28.928 2.152 2.064 2.152m-1.44-2.392c.08-.808.624-1.408 1.344-1.408.824 0 1.256.656 1.32 1.408zM5.062 12.99c1.112 0 1.912-.624 1.912-1.584v-.016c0-.856-.576-1.312-1.824-1.584-1.232-.264-1.52-.56-1.52-1.088v-.016c0-.504.464-.904 1.192-.904.576 0 1.096.184 1.616.608l.368-.488c-.568-.456-1.152-.688-1.968-.688-1.064 0-1.84.648-1.84 1.528v.016c0 .92.592 1.336 1.88 1.616 1.176.248 1.456.544 1.456 1.064v.016c0 .552-.496.952-1.248.952-.776 0-1.336-.264-1.92-.792l-.392.464c.672.6 1.4.896 2.288.896M6.65 4.35l.71-.71L9.5 5.8 13.3 2h.7v.7L9.5 7.2z"/></g></svg>
